X:89
T:Ty Coch Caerdydd - The Red House of Cardiff
M:4/4
L:1/8
Q:180
C:Trad. arr. J.T.
R:Processional
N:Aeolian mode arrangement
K:G
GF | EFGA BcBA | B4 A2 G2 | A2 c2 cB A2 | GAGF E2 GF |
EFGA BcBA | B4 A2 G2 | G2 E2 DEFD | E2 G2 E2 :||: GA |
BAGF EFGA | B2 B2 BAGF | AGFE DEFG | A2 A2 AGFE | BAGF E
FGA | B2 B2 BAGF | G2 E2 DEFD | E2 G2 E2 :||: E2 | FG A2
A2 A2 | FG A2 A2 A2 |GAB2GAB2|GABc BAG2|FGA2A2A2|
FG A2 A2 A2|G2 E2 DEFD |E2 G2 E2 :||
